icons/desktop/16/svg/gift-16.svg

<svg width="16" height="16" viewBox="0 0 16 16" fill="none" xmlns="http://www.w3.org/2000/svg">
<g clip-path="url(#clip0_8069_32521)">
<path fill-rule="evenodd" clip-rule="evenodd" d="M6 0C6.78921 0 7.49857 0.334032 8 0.866211C8.50143 0.334032 9.21079 0 10 0H10.25C11.7692 0 13 1.23079 13 2.75C13 3.24892 12.8639 3.71483 12.6318 4.11816C12.969 4.13516 13.3027 4.15263 13.6328 4.17285C14.6955 4.23916 15.4999 5.12544 15.5 6.1709V7.32812C15.5 8.06247 15.0995 8.71234 14.5 9.06152V13.0195C14.5 14.4016 13.4668 15.5849 12.0859 15.752C10.5775 15.935 9.20227 15.999 8 15.999C6.52559 15.999 5.16683 15.903 3.94531 15.7568C2.56251 15.592 1.5 14.4337 1.5 13.0225V9.06543C0.896316 8.71654 0.500045 8.06151 0.5 7.32812V6.17188C0.500065 5.11768 1.32383 4.2351 2.37988 4.1709C2.71165 4.15072 3.04083 4.13453 3.36719 4.11816C3.13523 3.71493 3 3.24875 3 2.75C3 1.23079 4.23079 0 5.75 0H6ZM3 13.0225C3 13.6552 3.47589 14.1894 4.12305 14.2666L5.02344 14.3623C5.72605 14.4268 6.46951 14.4721 7.25 14.4902V9.49316C5.77806 9.48109 4.35988 9.43532 3 9.36133V13.0225ZM13 9.36133C11.5271 9.44103 10.109 9.48311 8.75 9.49414V14.4883C9.71036 14.466 10.7684 14.4007 11.9053 14.2627C12.5242 14.1876 13 13.6513 13 13.0195V9.36133ZM8.75 7.99414C10.2698 7.98143 11.8652 7.93229 13.5293 7.83105C13.7892 7.81526 13.9999 7.59382 14 7.32812V6.1709C13.9999 5.89851 13.7932 5.6857 13.54 5.66992C12.0183 5.57672 10.4192 5.51957 8.75 5.50586V7.99414ZM7.25 5.50488C5.73019 5.51759 4.13479 5.56771 2.4707 5.66895C2.21084 5.68474 2.00007 5.90618 2 6.17188V7.32812C2.00006 7.60127 2.20754 7.81435 2.45996 7.83008C3.98197 7.92331 5.58041 7.97927 7.25 7.99316V5.50488ZM5.75 1.5C5.05921 1.5 4.5 2.05921 4.5 2.75C4.5 3.44079 5.05921 4 5.75 4H7.25V2.75C7.25 2.05921 6.69079 1.5 6 1.5H5.75ZM10 1.5C9.30921 1.5 8.75 2.05921 8.75 2.75V4H10.25C10.9408 4 11.5 3.44079 11.5 2.75C11.5 2.05921 10.9408 1.5 10.25 1.5H10Z" fill="black"/>
</g>
<defs>
<clipPath id="clip0_8069_32521">
<rect width="16" height="16" fill="white"/>
</clipPath>
</defs>
</svg>

<!-- This Source Code Form is subject to the terms of the Mozilla Public
   - License, v. 2.0. If a copy of the MPL was not distributed with this
   - file, You can obtain one at http://mozilla.org/MPL/2.0/. -->
<svg xmlns="http://www.w3.org/2000/svg" width="16" height="16" fill="context-fill" fill-opacity="context-fill-opacity" viewBox="0 0 16 16">
    <g clip-path="url(#clip0_8069_32521)">
        <path fill-rule="evenodd" d="M6 0c.79 0 1.499.334 2 .866A2.74 2.74 0 0 1 10 0h.25A2.75 2.75 0 0 1 13 2.75c0 .499-.136.965-.368 1.368q.505.025 1 .055A1.996 1.996 0 0 1 15.5 6.17v1.157c0 .734-.4 1.384-1 1.734v3.958a2.754 2.754 0 0 1-2.414 2.732 34 34 0 0 1-8.14.005A2.76 2.76 0 0 1 1.5 13.023V9.065a2.01 2.01 0 0 1-1-1.737V6.172c0-1.054.824-1.937 1.88-2.001q.497-.029.987-.053A2.75 2.75 0 0 1 5.75 0zM3 13.023c0 .632.476 1.166 1.123 1.244l.9.095q1.056.1 2.227.128V9.493A92 92 0 0 1 3 9.361zM13 9.36a93 93 0 0 1-4.25.133v4.994a32 32 0 0 0 3.155-.225A1.255 1.255 0 0 0 13 13.02zM8.75 7.994a91 91 0 0 0 4.78-.163.506.506 0 0 0 .47-.503V6.171a.496.496 0 0 0-.46-.501 91 91 0 0 0-4.79-.164zm-1.5-2.49c-1.52.014-3.115.064-4.78.165a.506.506 0 0 0-.47.503v1.156c0 .273.208.486.46.502q2.284.142 4.79.163zM5.75 1.5a1.25 1.25 0 1 0 0 2.5h1.5V2.75c0-.69-.56-1.25-1.25-1.25zm4.25 0c-.69 0-1.25.56-1.25 1.25V4h1.5a1.25 1.25 0 1 0 0-2.5z" clip-rule="evenodd" />
    </g>
</svg>
